!! Stephen C. Foster, "Don't Bet Your Money on De Shanghai"
!! from 'Stephen Foster Song Book' Dover Publications (New York) pp. 26-27
!! NOTE:  Leading and trailing bars of rest have been omitted.
**kern
*M2/4
*MM68
*C:
8c
=1
8c
8e
16g
16g
16cc
16cc
=2
16b
16cc
16dd
16b
8g
16r
16b
=3
16cc
16b
16cc
16g
16a
16g
16f
16e
=4
8e
16d
16c
8d
16r
16c
=5
8c
8e
16g
16g
16cc
16cc
=6
16b
16cc
16dd
16b
8g
16r
16b
=7
16cc
16b
16cc
16g
16a
16g
16f
16e
=8
8e
8d
8d
8r
=9
4.g
8g
=10
4ee
4cc
=11
8a
16a
16g#
16a
16b
16cc
16a
=12
8g
8e
4r
=13
16c
16c
16e
16e
16g
16g
16cc
16cc
=14
16b
16cc
16dd
16b
8g
16r
16g
=15
8cc
16g
16g
16g
16a
16g
16f
=16
8e
8c
4r
==
*-
